X:1
T:Ein’ Feste Burg, 87.87.66.667
T:Martin Luther, 1529
T:Ein’ Feste Burg, 87.87.66.667
T:Public Domain
C:Martin Luther, 1529
Z:Public Domain
%%score ( 1 2 ) ( 3 4 )
L:1/8
M:4/4
K:C
V:1 treble 
V:2 treble 
V:3 bass 
V:4 bass 
V:1
 [Ec]2 | [Cc]2 [Ec]2 (GA) [GB]2 | (cB) [^FA]2 G2 [Ec]2 | [EB]2 [CA]2 [CG]2 [CA]2 | %4
 (FE) [B,D]2 C2 [Ec]2 | [Cc]2 [Ec]2 (GA) [EB]2 | (cB)(DC) [B,G]2 [Cc]2 | [EB]2 [CA]2 [CG]2 [CA]2 | %8
 (FE) [B,D]2 C2 C2 | [EG]2 [EA]2 [DG]2 (DC) | [B,G]6 C2 | [DG]2 [EG]2 [CA]2 [DB]2 | [Cc]6 [EB]2 | %13
 [Ec]2 [EB]2 [EA]2 (DC) | [B,G]6 [CA]2 | [FA]2 [EG]2 [EA]2 [DF]2 | [B,E]6 [Cc]2 | %17
 [EB]2 [CA]2 [EG]2 [EA]2 | (FE) [B,D]2 C2 |] %19
V:2
 x2 | x4 D2 x2 | E2 x G2 x3 | x8 | A,2 x6 | x4 D2 x2 | C2 A2 x4 | x8 | A,2 x C2 C2 x | x6 ^F2 | %10
 x6 C2 | x8 | x8 | x6 A2 | x8 | x8 | x8 | x8 | A,2 x C2 x |] %19
V:3
 [C,G,]2 | [E,G,]2 [C,G,]2 [G,B,]2 [D,B,]2 | A,2 (DC) [G,B,]2 A,2 | [E,G,]2 F,2 [C,E,]2 [A,,E,]2 | %4
 [D,F,]2 [G,,G,]2 [C,E,]2 [C,G,]2 | [E,G,]2 [C,G,]2 [G,B,]2 [E,G,]2 | %6
 [A,,E,]2 [D,^F,]2 [G,,G,]2 [A,,E,]2 | [E,G,]2 F,2 [C,E,]2 [A,,E,]2 | %8
 [D,F,]2 (G,F,) [C,E,]2 [C,E,]2 | [C,G,]2 [A,,C]2 (B,,C,) [D,A,]2 | [G,,G,]6 [C,E,]2 | %11
 [B,,G,]2 [C,G,]2 F,2 [D,F,]2 | [A,,E,]6 [^G,,B,]2 | [A,,A,]2 [B,,^G,]2 [C,A,]2 [D,^F,]2 | %14
 [G,,G,]6 [F,,C]2 | [A,,C]2 (_CB,) [^C,A,]2 [D,A,]2 | [E,^G,]6 [A,,A,]2 | %17
 [E,G,]2 [F,A,]2 [C,C]2 [A,,C]2 | [D,F,]2 (G,F,) [C,E,]2 |] %19
V:4
 x2 | x8 | A,2 D,2 x A,2 x | x2 F,2 x4 | x8 | x8 | x8 | x2 F,2 x4 | x2 G,,2 x4 | x4 B,2 x2 | x8 | %11
 x4 F,2 x2 | x8 | x8 | x8 | x2 =C,2 x4 | x8 | x8 | x2 G,,2 x2 |] %19

